images/logo.svg

<svg width="139" height="52" viewBox="0 0 139 52" fill="none" xmlns="http://www.w3.org/2000/svg">
<path d="M16.7559 30.8994H22.3257C23.772 30.8994 25.0488 31.1925 26.1563 31.7788C27.2637 32.3521 28.1236 33.1599 28.736 34.2022C29.3483 35.2315 29.6545 36.4106 29.6545 37.7396C29.6545 39.0685 29.3483 40.2542 28.736 41.2965C28.1236 42.3258 27.2637 43.1336 26.1563 43.7199C25.0488 44.2931 23.772 44.5798 22.3257 44.5798H16.7559V30.8994ZM22.2476 43.329C23.4462 43.329 24.4951 43.0945 25.3941 42.6254C26.2931 42.1433 26.9901 41.4854 27.4852 40.6515C27.9803 39.8047 28.2279 38.834 28.2279 37.7396C28.2279 36.6451 27.9803 35.681 27.4852 34.8471C26.9901 34.0002 26.2931 33.3423 25.3941 32.8732C24.4951 32.3912 23.4462 32.1501 22.2476 32.1501H18.2021V43.329H22.2476Z" fill="#49423D"/>
<path d="M38.8824 44.697C37.5274 44.697 36.2961 44.3974 35.1887 43.798C34.0942 43.1857 33.2343 42.3518 32.6089 41.2965C31.9966 40.2411 31.6904 39.0555 31.6904 37.7396C31.6904 36.4236 31.9966 35.238 32.6089 34.1827C33.2343 33.1273 34.0942 32.3 35.1887 31.7006C36.2961 31.0883 37.5274 30.7821 38.8824 30.7821C40.2374 30.7821 41.4556 31.0818 42.537 31.6811C43.6314 32.2804 44.4914 33.1143 45.1167 34.1827C45.7421 35.238 46.0548 36.4236 46.0548 37.7396C46.0548 39.0555 45.7421 40.2476 45.1167 41.316C44.4914 42.3714 43.6314 43.1987 42.537 43.798C41.4556 44.3974 40.2374 44.697 38.8824 44.697ZM38.8824 43.4072C39.9638 43.4072 40.941 43.1661 41.8139 42.6841C42.6868 42.189 43.3709 41.5114 43.866 40.6515C44.3611 39.7786 44.6086 38.8079 44.6086 37.7396C44.6086 36.6712 44.3611 35.707 43.866 34.8471C43.3709 33.9742 42.6868 33.2967 41.8139 32.8146C40.941 32.3195 39.9638 32.072 38.8824 32.072C37.801 32.072 36.8173 32.3195 35.9313 32.8146C35.0584 33.2967 34.3679 33.9742 33.8597 34.8471C33.3646 35.707 33.1171 36.6712 33.1171 37.7396C33.1171 38.8079 33.3646 39.7786 33.8597 40.6515C34.3679 41.5114 35.0584 42.189 35.9313 42.6841C36.8173 43.1661 37.801 43.4072 38.8824 43.4072Z" fill="#49423D"/>
<path d="M63.5045 30.8994V44.5798H62.1169V33.6354L56.7425 42.8404H56.0585L50.684 33.6941V44.5798H49.2964V30.8994H50.4886L56.4298 41.0424L62.3124 30.8994H63.5045Z" fill="#49423D"/>
<path d="M73.9422 44.697C72.5872 44.697 71.356 44.3974 70.2485 43.798C69.1541 43.1857 68.2942 42.3518 67.6688 41.2965C67.0564 40.2411 66.7503 39.0555 66.7503 37.7396C66.7503 36.4236 67.0564 35.238 67.6688 34.1827C68.2942 33.1273 69.1541 32.3 70.2485 31.7006C71.356 31.0883 72.5872 30.7821 73.9422 30.7821C75.2973 30.7821 76.5155 31.0818 77.5969 31.6811C78.6913 32.2804 79.5512 33.1143 80.1766 34.1827C80.802 35.238 81.1147 36.4236 81.1147 37.7396C81.1147 39.0555 80.802 40.2476 80.1766 41.316C79.5512 42.3714 78.6913 43.1987 77.5969 43.798C76.5155 44.3974 75.2973 44.697 73.9422 44.697ZM73.9422 43.4072C75.0237 43.4072 76.0008 43.1661 76.8738 42.6841C77.7467 42.189 78.4307 41.5114 78.9258 40.6515C79.4209 39.7786 79.6685 38.8079 79.6685 37.7396C79.6685 36.6712 79.4209 35.707 78.9258 34.8471C78.4307 33.9742 77.7467 33.2967 76.8738 32.8146C76.0008 32.3195 75.0237 32.072 73.9422 32.072C72.8608 32.072 71.8772 32.3195 70.9912 32.8146C70.1182 33.2967 69.4277 33.9742 68.9196 34.8471C68.4245 35.707 68.1769 36.6712 68.1769 37.7396C68.1769 38.8079 68.4245 39.7786 68.9196 40.6515C69.4277 41.5114 70.1182 42.189 70.9912 42.6841C71.8772 43.1661 72.8608 43.4072 73.9422 43.4072Z" fill="#49423D"/>
<path d="M88.1282 44.697C87.1119 44.697 86.1348 44.5342 85.1967 44.2084C84.2716 43.8827 83.555 43.4528 83.0469 42.9186L83.6137 41.8046C84.1087 42.2997 84.7667 42.7036 85.5875 43.0163C86.4084 43.316 87.2552 43.4658 88.1282 43.4658C89.3529 43.4658 90.2714 43.2443 90.8838 42.8013C91.4962 42.3453 91.8024 41.759 91.8024 41.0424C91.8024 40.4952 91.633 40.0587 91.2942 39.733C90.9685 39.4073 90.5646 39.1597 90.0825 38.9903C89.6005 38.8079 88.9295 38.6125 88.0696 38.404C87.0403 38.1435 86.2194 37.8959 85.6071 37.6614C84.9947 37.4138 84.467 37.0425 84.0241 36.5474C83.5941 36.0523 83.3791 35.3813 83.3791 34.5344C83.3791 33.8439 83.5615 33.2185 83.9263 32.6583C84.2912 32.085 84.8514 31.629 85.6071 31.2902C86.3628 30.9515 87.3008 30.7821 88.4213 30.7821C89.2031 30.7821 89.9653 30.8928 90.7079 31.1143C91.4636 31.3228 92.115 31.616 92.6623 31.9938L92.1737 33.1469C91.6004 32.769 90.988 32.4889 90.3366 32.3065C89.6852 32.1111 89.0467 32.0133 88.4213 32.0133C87.2227 32.0133 86.3172 32.2479 85.7048 32.7169C85.1055 33.1729 84.8058 33.7657 84.8058 34.4954C84.8058 35.0426 84.9687 35.4856 85.2944 35.8243C85.6331 36.15 86.0501 36.4041 86.5452 36.5865C87.0533 36.7559 87.7308 36.9448 88.5777 37.1533C89.5809 37.4008 90.3887 37.6484 91.0011 37.8959C91.6265 38.1304 92.1541 38.4952 92.5841 38.9903C93.014 39.4724 93.229 40.1304 93.229 40.9642C93.229 41.6548 93.0401 42.2867 92.6623 42.8599C92.2975 43.4202 91.7307 43.8697 90.962 44.2084C90.1933 44.5342 89.2487 44.697 88.1282 44.697Z" fill="#49423D"/>
<path d="M104.999 37.5246C105.898 37.72 106.588 38.1109 107.07 38.6972C107.565 39.2705 107.813 40.0131 107.813 40.9251C107.813 42.0977 107.377 43.0033 106.504 43.6417C105.644 44.2671 104.367 44.5798 102.673 44.5798H96.3801V30.8994H102.282C103.807 30.8994 104.986 31.2055 105.82 31.8179C106.666 32.4303 107.09 33.2967 107.09 34.4172C107.09 35.1729 106.901 35.8178 106.523 36.352C106.158 36.8731 105.65 37.264 104.999 37.5246ZM97.8263 32.0915V37.0555H102.185C103.292 37.0555 104.145 36.8471 104.745 36.4302C105.344 36.0002 105.644 35.3813 105.644 34.5735C105.644 33.7657 105.344 33.1534 104.745 32.7364C104.145 32.3065 103.292 32.0915 102.185 32.0915H97.8263ZM102.654 43.3876C103.878 43.3876 104.803 43.1792 105.429 42.7622C106.054 42.3453 106.367 41.6939 106.367 40.8079C106.367 39.1011 105.129 38.2477 102.654 38.2477H97.8263V43.3876H102.654Z" fill="#49423D"/>
<path d="M117.094 44.697C115.739 44.697 114.508 44.3974 113.401 43.798C112.306 43.1857 111.446 42.3518 110.821 41.2965C110.209 40.2411 109.902 39.0555 109.902 37.7396C109.902 36.4236 110.209 35.238 110.821 34.1827C111.446 33.1273 112.306 32.3 113.401 31.7006C114.508 31.0883 115.739 30.7821 117.094 30.7821C118.449 30.7821 119.668 31.0818 120.749 31.6811C121.843 32.2804 122.703 33.1143 123.329 34.1827C123.954 35.238 124.267 36.4236 124.267 37.7396C124.267 39.0555 123.954 40.2476 123.329 41.316C122.703 42.3714 121.843 43.1987 120.749 43.798C119.668 44.3974 118.449 44.697 117.094 44.697ZM117.094 43.4072C118.176 43.4072 119.153 43.1661 120.026 42.6841C120.899 42.189 121.583 41.5114 122.078 40.6515C122.573 39.7786 122.821 38.8079 122.821 37.7396C122.821 36.6712 122.573 35.707 122.078 34.8471C121.583 33.9742 120.899 33.2967 120.026 32.8146C119.153 32.3195 118.176 32.072 117.094 32.072C116.013 32.072 115.029 32.3195 114.143 32.8146C113.27 33.2967 112.58 33.9742 112.072 34.8471C111.577 35.707 111.329 36.6712 111.329 37.7396C111.329 38.8079 111.577 39.7786 112.072 40.6515C112.58 41.5114 113.27 42.189 114.143 42.6841C115.029 43.1661 116.013 43.4072 117.094 43.4072Z" fill="#49423D"/>
<path d="M136.85 44.5798L133.723 40.1825C133.371 40.2216 133.007 40.2411 132.629 40.2411H128.955V44.5798H127.508V30.8994H132.629C134.375 30.8994 135.743 31.3163 136.733 32.1501C137.723 32.984 138.218 34.1305 138.218 35.5898C138.218 36.6582 137.945 37.5637 137.397 38.3063C136.863 39.0359 136.094 39.5636 135.091 39.8893L138.433 44.5798H136.85ZM132.59 39.0099C133.945 39.0099 134.98 38.7102 135.697 38.1109C136.414 37.5116 136.772 36.6712 136.772 35.5898C136.772 34.4823 136.414 33.6354 135.697 33.0491C134.98 32.4498 133.945 32.1501 132.59 32.1501H128.955V39.0099H132.59Z" fill="#49423D"/>
<path d="M12.1765 51H1V20.4118L41.5882 1L82.7647 20.4118V25.7059" stroke="#8DB338" stroke-width="1.53059"/>
</svg>

<svg width="139" height="52" fill="none" xmlns="http://www.w3.org/2000/svg"><path d="M16.756 30.9h5.57c1.446 0 2.723.293 3.83.879 1.108.573 1.968 1.38 2.58 2.423.612 1.03.918 2.209.918 3.538 0 1.328-.306 2.514-.918 3.556-.612 1.03-1.472 1.838-2.58 2.424-1.107.573-2.384.86-3.83.86h-5.57V30.9zm5.492 12.429c1.198 0 2.247-.235 3.146-.704.9-.482 1.596-1.14 2.091-1.974.495-.846.743-1.817.743-2.911 0-1.095-.248-2.059-.743-2.893a5.097 5.097 0 00-2.09-1.974c-.9-.482-1.949-.723-3.147-.723h-4.046v11.18h4.046zm16.634 1.368c-1.355 0-2.586-.3-3.693-.899a6.798 6.798 0 01-2.58-2.502c-.612-1.055-.919-2.24-.919-3.556 0-1.316.307-2.502.919-3.557a6.656 6.656 0 012.58-2.482c1.107-.613 2.338-.919 3.693-.919s2.574.3 3.655.9a6.613 6.613 0 012.58 2.5c.625 1.056.938 2.242.938 3.558 0 1.316-.313 2.508-.938 3.576a6.655 6.655 0 01-2.58 2.482c-1.081.6-2.3.899-3.655.899zm0-1.29c1.082 0 2.059-.24 2.932-.723a5.395 5.395 0 002.052-2.032c.495-.873.743-1.844.743-2.912 0-1.069-.248-2.033-.743-2.893a5.218 5.218 0 00-2.052-2.032c-.873-.495-1.85-.743-2.932-.743-1.081 0-2.065.247-2.95.743a5.354 5.354 0 00-2.072 2.032c-.495.86-.743 1.824-.743 2.893 0 1.068.248 2.039.743 2.911a5.54 5.54 0 002.071 2.033c.886.482 1.87.723 2.951.723zM63.505 30.9v13.68h-1.388V33.635l-5.374 9.205h-.684l-5.375-9.146V44.58h-1.388V30.9h1.193l5.94 10.142L62.313 30.9h1.193zm10.437 13.797c-1.355 0-2.586-.3-3.693-.899a6.799 6.799 0 01-2.58-2.502c-.613-1.055-.919-2.24-.919-3.556 0-1.316.306-2.502.919-3.557a6.657 6.657 0 012.58-2.482c1.107-.613 2.338-.919 3.693-.919s2.574.3 3.655.9a6.614 6.614 0 012.58 2.5c.625 1.056.938 2.242.938 3.558 0 1.316-.313 2.508-.938 3.576a6.656 6.656 0 01-2.58 2.482c-1.081.6-2.3.899-3.655.899zm0-1.29c1.082 0 2.059-.24 2.932-.723a5.395 5.395 0 002.052-2.032c.495-.873.742-1.844.742-2.912 0-1.069-.247-2.033-.742-2.893a5.218 5.218 0 00-2.052-2.032c-.873-.495-1.85-.743-2.932-.743-1.081 0-2.065.247-2.95.743a5.353 5.353 0 00-2.072 2.032c-.496.86-.743 1.824-.743 2.893 0 1.068.247 2.039.743 2.911a5.538 5.538 0 002.071 2.033c.886.482 1.87.723 2.951.723zm14.186 1.29a8.871 8.871 0 01-2.931-.489c-.925-.325-1.642-.755-2.15-1.29l.567-1.113c.495.495 1.153.899 1.974 1.211.82.3 1.667.45 2.54.45 1.225 0 2.143-.222 2.756-.665.612-.456.918-1.042.918-1.759 0-.547-.169-.983-.508-1.309a3.17 3.17 0 00-1.212-.743c-.481-.182-1.152-.378-2.012-.586-1.03-.26-1.85-.508-2.463-.743a4.22 4.22 0 01-1.583-1.114c-.43-.495-.645-1.166-.645-2.013 0-.69.182-1.316.547-1.876.365-.573.925-1.029 1.681-1.368.756-.338 1.694-.508 2.814-.508.782 0 1.544.11 2.287.332.756.209 1.407.502 1.954.88l-.488 1.153a6.51 6.51 0 00-1.837-.84 6.646 6.646 0 00-1.916-.294c-1.198 0-2.104.235-2.716.704-.6.456-.9 1.049-.9 1.778 0 .548.164.99.49 1.33.338.325.755.58 1.25.761.508.17 1.186.359 2.033.567 1.003.248 1.81.495 2.423.743.625.234 1.153.6 1.583 1.094.43.482.645 1.14.645 1.974 0 .69-.189 1.323-.567 1.896-.365.56-.931 1.01-1.7 1.348-.769.326-1.713.489-2.834.489zm16.871-7.172c.899.195 1.589.586 2.071 1.172.495.573.743 1.316.743 2.228 0 1.173-.436 2.078-1.309 2.717-.86.625-2.137.938-3.831.938H96.38V30.9h5.902c1.525 0 2.704.306 3.538.918.846.612 1.27 1.479 1.27 2.6 0 .755-.189 1.4-.567 1.934-.365.521-.873.912-1.524 1.173zm-7.173-5.433v4.964h4.359c1.107 0 1.96-.209 2.56-.626.599-.43.899-1.049.899-1.856 0-.808-.3-1.42-.899-1.838-.6-.43-1.453-.644-2.56-.644h-4.359zm4.828 11.296c1.224 0 2.149-.209 2.775-.626.625-.417.938-1.068.938-1.954 0-1.707-1.238-2.56-3.713-2.56h-4.828v5.14h4.828zm14.44 1.309c-1.355 0-2.586-.3-3.693-.899a6.792 6.792 0 01-2.58-2.502c-.612-1.055-.919-2.24-.919-3.556 0-1.316.307-2.502.919-3.557a6.65 6.65 0 012.58-2.482c1.107-.613 2.338-.919 3.693-.919s2.574.3 3.655.9a6.621 6.621 0 012.58 2.5c.625 1.056.938 2.242.938 3.558 0 1.316-.313 2.508-.938 3.576a6.663 6.663 0 01-2.58 2.482c-1.081.6-2.3.899-3.655.899zm0-1.29c1.082 0 2.059-.24 2.932-.723a5.393 5.393 0 002.052-2.032c.495-.873.743-1.844.743-2.912 0-1.069-.248-2.033-.743-2.893a5.216 5.216 0 00-2.052-2.032c-.873-.495-1.85-.743-2.932-.743-1.081 0-2.065.247-2.951.743a5.35 5.35 0 00-2.071 2.032c-.495.86-.743 1.824-.743 2.893 0 1.068.248 2.039.743 2.911a5.536 5.536 0 002.071 2.033c.886.482 1.87.723 2.951.723zm19.756 1.173l-3.127-4.398a9.9 9.9 0 01-1.094.06h-3.674v4.338h-1.447V30.9h5.121c1.746 0 3.114.416 4.104 1.25.99.834 1.485 1.98 1.485 3.44 0 1.068-.273 1.974-.821 2.716-.534.73-1.303 1.258-2.306 1.583l3.342 4.69h-1.583zm-4.26-5.57c1.355 0 2.39-.3 3.107-.9.717-.598 1.075-1.439 1.075-2.52 0-1.108-.358-1.955-1.075-2.54-.717-.6-1.752-.9-3.107-.9h-3.635v6.86h3.635z" fill="#49423D"/><path d="M12.177 51H1V20.412L41.588 1l41.177 19.412v5.294" stroke="#8DB338" stroke-width="1.531"/></svg>
